X:1
T:Title
%%score [ ( 1 2 ) ( 3 4 ) ] { ( 5 6 ) | ( 7 8 ) }
L:1/8
Q:1/4=120
M:4/4
K:D
V:1 treble nm="Midi_74"
V:2 treble 
V:3 bass nm="Midi_74"
V:4 bass 
V:5 treble nm="Org."
V:6 treble 
V:7 bass 
V:8 bass 
V:1
"^Double Counterpoint." (d6 cB) | A4 G4 | F8 || (A6 f2) | e4 A4 | c4 B4 | A8 || A8 | A4 B4 | A8 || %10
 (D6 B2) | A4 D4 |"^William Henry Havergal\n(1793-1870)" F4 E4 | D8 |] %14
V:2
 (F6 G2) | (F2 D2) (D2 C2) | D8 || (E6 D2) | E4 C4 | E4 (E2 D2) | C8 || (F6 ED) | %8
 (D2 C2) (B,2 C2) | D8 || D8 | D4 D4 | D4 C4 | D8 |] %14
V:3
 A,8 | (A,2 F,2) G,4 | A,8 || A,8 | A,4 A,4 | A,4 ^G,4 | A,8 || A,8 | A,4 (D2 G,2) | A,8 || %10
 (F,6 G,2) | A,4 F,4 | A,4 (A,2 G,2) | F,8 |] %14
V:4
 D,8 | D,4 E,4 | D,8 || (C,6 D,2) | C,4 F,4 | E,4 E,4 | A,,8 || (D,6 C,B,,) | A,,4 G,,4 | F,,8 || %10
 (B,,6 G,,2) | F,,4 B,,4 | A,,4 A,,4 | D,8 |] %14
V:5
 d6 cB | A4 G4 | F8 || A6 f2 | e4 A4 | c4 [^GB]4 | A8 || A8 | A4 B4 | A8 || D6 B2 | A4 D4 | F4 E4 | %13
 D8 |] %14
V:6
 F6 G2 | F2 D2 D2 C2 | D8 || E6 A2 | [EA]4 C4 | [EA]4 E2 D2 | C8 || F6 ED | D2 C2 B,2 C2 | D8 || %10
 B,6 D2 | D4 D4 | D4 C4 | D8 |] %14
V:7
 A,8 | A,2 F,2 G,4 | A,8 || A,8 | A,8 | x8 | x8 || A,8 | A,4 D2 G,2 | A,8 || F,6 G,2 | A,4 F,4 | %12
 A,4 A,2 G,2 | F,8 |] %14
V:8
 D,8 | D,4 E,4 | D,8 || C,6 D,2 | C,4 F,4 | E,4 E,4 | A,,8 || D,6 C,B,, | A,,4 G,,4 | F,,8 || %10
 B,,6 G,,2 | F,,4 B,,4 | A,,4 A,,4 | D,8 |] %14

